X:5510
T:Scotland the Brave
M:4/4
O:Scotland
R:Reel
Z:Richard Robinson 
%%TUNEURL: http://www.leeds.ac.uk/music/Info/RRTuneBk/gettune/000008a6.html
%%ID:000008a6
K:G
G2 G>A BG Bd | g2 g>f gd BG | c2 e>c Bd BG \
|1 A2d>e dc BA :|2 A2G>F G2f>g | \
a2 a>a af d2 | g2 b>a ge d2 | \
g2 g>g f2 g>f | eg fe dc BA |\
G2 G>A BG Bd | g2 g>f gd BG |\
c2 e>c Bd BG | A2 G>F G4 |]
